X:3
T:"Sam's Song" - Elton1.sty demo
L:1/8
K:Eb
Q:1/4=135
R:ELTON 1 - ROCK COLCHEIAS JUSTAS
M:4/4
| "Eb" z8 | "Ab" z8 | "Db" z8 | "Ab" z8 |
| "Eb"B6 Bc | "Bb"B4 c2 d2 | "Cm"e3 G- G2 FG- | G4 "Bb"GA B2 |
| "Ab"c6 B2 | "Eb"G3 A G2 FE | "Bb7sus"F8- | "Bb"F6 GA |
| "Eb"B6 Bc | "Bb"B4- B3/2c/2 d2 | "Cm"e4 G2 FG- | G4 "Bb"GA B2 |
| "Ab"c6 E2 | "Eb"EFGF- "Bb"F2 EE | "Eb"-E4- "Ab"E4 | "Eb"-E6 B2 |
| "C7"c6 Bc | _d2 _dc- c2 B2 | "Fm"B2 AA- A2 GA- | A8 |
| "Ab"c6 c=d | "Adim"e3 d- d2 c2 | "Bb7sus"c2 BB- B2 =AB | "Bb"-B8 |
| "G7"d3 d- d4- | "G7"d2 d2 e2 f2 | "Cm"=e/2f3/2- f_e "Bbm7"e3 c | "F7"c8- |
| c4 cB _G/2F/2E | "Eb"_G/2=G3/2- G4 FG | "Bb7sus"A2 BG- "Bb"G2 F2 | "Eb"E6- "Ab"E2 |
| "Eb"-E6  z2 | "Eb" z8 | z8 |

